X:1
T:Sam and Natalie's trip to Doolin
M:2/4
L:1/8
K:Am
Ae/A/ ed/e/|fe d/c/B/c/|dB ed/c/|B/A/G/A/ cB|
!Ae/A/ ed/e/|fe d/c/B/c/|dB ed/c/|B/A/B/c/ A2:|
!|:AA Bc/B/|AA B>c|dB ed/c/|B/A/G/A/ cB|
!AA Bc/B/|AA B>c|dB ed/c/|B/A/B/c/ A2:|
